X:220
T:Rolling Wave, The
B:Dance Music of Willie Clancy (Dublin 1976)
Z:Nigel Gatherer
N:rough transcription only
M:6/8
R:Jig
L:1/8
K:D
FEF D3 | D2 d cAG | FEF D3 | AAF GFE |
FEF D3 | D2 d cAG | E F2 G3 | (4AcAF GFE :|
D2 d cAd | cAd cAG | F2 d cAG | A2 F GFE |
D2 d cAc | ded cAG | (4FGAF GBG | AAF GFE |
D2 d cAd | cAd cAG | F2 d cAG | FAF GFE |
D2 d cde | (4gfed cAG | E F2 G3 | A2 F GFE |]
<end>
<start>
